!!!CDT:
!!!PTL: Il terzo libro de madrigali a cinque voci
!!!PPP: Venice
!!!PPR: Angelo Gardano
!!!PDT: 1596
!!!PUB-format:
!!!RISM: S 6972
!!!rime: 541
!!!AGN: Madrigal
!!!SCT: Trm0541c
!!!SCA: Trm0541c
!!!original-voices: 5
!!!extant-voices: 1
!!!complete: N
!!!final: G?
!!!COM: Striggio, Alessandro
!!!OTL: Tolse BARBARA gente il pregio a Roma
**kern	**text
*part1	*part1
*staff1	*staff1
*I"Tenore	*
*I'T	*
*oclefC4	*
*clefGv2	*
*k[]	*
*omet(C|)	*
*M2/1	*
=1	=1
!!LO:TX:a:t=Prima parte.
0r	.
=2	=2
0r	.
=3	=3
1c	Tol-
2B	-se
[2A	Bar-
=4	=4
4A]	.
4A	-ba-
2G	-ra
1F	gen-
=5	=5
2E	-t'il
4G	pre-
4G	-gio a
2F	Ro-
2C	-ma,
=6	=6
2r	.
2A	il
2.c	pre-
4B	.
=7	=7
2.A	.
4G	.
2F	.
2C	-gio a
=8	=8
4D	Ro-
4E	.
4F	.
4G	.
2A	.
4G	.
4F	.
=9	=9
1G	.
1G	-ma
=10	=10
2r	.
4C	Del
4C	Im-
2F	-pe-
4C	-rio e
4C	del-
=11	=11
2G	-l'ar-
2C	-mi,
4r	.
2c	Del
4d	Im-
=12	=12
2d	-pe-
4c	-rio e
4e	del-
2d	-l'ar-
2c	-mi e
=13	=13
2.c	ser-
8BL	.
8AJ	.
4G	.
4c	-va
2B	fel-
=14	=14
1A	-la,
1B	O
=15	=15
2A	no-
2A	-me a
2G	lei
2d	fa-
=16	=16
2c	-ta-
2G	-le!
4r	.
4.G	ec-
8G	-co
4G	no-
=17	=17
4A	-vel-
4E	-la
4.c	Bar-
8c	-ba-
2c	-ra
4F	vin-
4G	-ci-
=18	=18
2C	-tri-
2G	-ce an-
2F#X	-co
2G	la
=19	=19
2A	do-
4B	-ma,
4.d	an-
8d	-co
4d	la
2d	do-
=20	=20
2d	-ma.
2d	Et
2d	a
2A	qual
=21	=21
2c	più
2F	fa-
2c	-mo-
4G	-sa in
[4A	lei
=22	=22
4A]	.
4D	si
2A	no-
1A	-ma
=23	=23
0r	.
=24	=24
0r	.
=25	=25
2r	.
2c	Tol-
4c	-to
4c	lo
2G	sce-
=26	=26
2G	-tro e'l
2.A	ti-
4A	-to-
4.c	-lo
8d	.
=27	=27
4e	.
4B	di
2B	bel-
2c#X	-la,
2d	Spie-
=28	=28
4A	-ga
4cnXi	sua
2.G	squa-
4E	-dr'in
4G	Cam-
4F	-pi-
=29	=29
2E	-do-
2D	-glio,
2r	.
2G	Spie-
=30	=30
4G	-ga
4G	sua
4F	squa-
4E	-dr'in
4D	Cam-
4E	-pi-
2F	-do-
=31	=31
4E	-glio,
4G	in
4G	Cam-
4G	-pi-
1A	-do-
=32	=32
2G	-glio
4r	.
4G	e
2F#X	quel-
2G	-la
=33	=33
2G	Dei
4A	suoi
4A	pri-
2A	-gio-
2B	-ni
=34	=34
4r	.
2e	in-
2d	-ca-
2c	-te-
[4B	-na-
=35	=35
4B]	.
2A	-ta e
2G	do-
4F#i	.
2G	-ma,
=36	=36
2r	.
2E	in-
4G	-ca-
4G	-te-
2A	-na-
=37	=37
4B	-ta e
2c	do-
4B	.
4c	-ma,
4G	e
2G	do-
=38	=38
0Gl	-ma.
=39||	=39||
!!LO:TX:a:t=Seconda parte.
0r	.
=40	=40
0r	.
=41	=41
1r	.
2r	.
2G	So-
=42	=42
4G	-no i
4G	guer-
2A	-rie-
2F#X	-ri
2G	suoi
=43	=43
2A	mol-
4B	-le
4B	ri-
4.c	-go-
8B	.
2A	.
=44	=44
2G	-re
2F	E
1A	con
=45	=45
1D	ca-
2D	-sta
2A	bel-
=46	=46
1A	-tà
1A	sde-
=47	=47
1.G	-gno
2c	cor-
=48	=48
1B	-te-
4A	-se,
4e	Che
4e	quan-
4e	-to
=49	=49
4A	sfi-
4A	-da
2F#X	più
2G	tan-
4F#X	-to
4F#i	più
=50	=50
2A	pia-
2A	-ce,
4r	.
4e	Che
4e	quan-
4e	-to
=51	=51
4A	sfi-
4A	-da
2F#X	più
2G	tan-
4G	-to
4G	più
=52	=52
2E	pia-
2E	-ce.
2r	.
[2D	I
=53	=53
2D]	.
1G	vin-
2E	-ti
=54	=54
4r	.
4D	un
4D	ses-
4C	-so e
2G	l'al-
4C	-tro,
4C	<un
=55	=55
2c	ses-
4A	-so e
2c	l'al-
4B	.
2c	-tro;>
=56	=56
0r	.
=57	=57
1d	L'al-
2c	-tro
2B	d'in-
=58	=58
1A	-vi-
1B	-dia:
=59	=59
2r	.
1c	or
2c	co-
=60	=60
0c	-m'è
=61	=61
0r	.
=62	=62
2r	.
2.G	che
4G	la
4E	fa-
4C	-ce
=63	=63
2D	Stes-
4D	-sa
2d	ch'a-
4d	-giac-
2d	-ciò
=64	=64
1c#X	l'un
2d	sì
4G	l'al-
4G	-tr'ac-
=65	=65
2A	-ce-
4G	-se,
4G	sì
4G	l'al-
4D	-tr'ac-
2A	-ce-
=66	=66
4F#X	-se,
4G	sì
4E	l'al-
4G	-tr'ac-
4G	-ce-
4F#X	.
4G	-se,
4G	<sì
=67	=67
4F#X	l'al-
4G	-tr'ac-
2G	-ce-
2G	-se,>
2r	.
=68	=68
2G	sì
2.D	l'al-
4D	-tr'ac-
2d	-ce-
=69	=69
0dl	-se?
==	==
*-	*-
!!!RDF**kern: i = editorial accidental
!!!RDF**kern: l = terminal long
!!!ENC: Emiliano Ricciardi
!!!END: 2018
!!!EED: Ricciardi, Emiliano
!!!EEV: 2018/09/18
!!!YEC: Copyright 2018 Emiliano Ricciardi, All Rights Reserved
!!!ONB: Translated from MusicXML on 2018/09/18 and edited by Craig Stuart Sapp
!!@@BEGIN:	VERSEDATA
!!@SOLERTI:	541
!!@CATALOGNUM:	Trm0541
!!@LAST_MODIFIED: 2020/07/12
!!@TITLE:		Tolse <span class="name">Barbara</span> gente il pregio a Roma
!!@GENRE:		sonetto
!!@MANUSRC:	A<sub>3</sub>, Amz, Ar, Brn, C, I<sub>4</sub>, J<sub>4</sub>, N<sub>12</sub>, N<sub>14</sub>, Ts<sub>1</sub>, V<sub>2</sub>, V<sub>8</sub>, V<sub>13/TS1</sub>, W
!!@PRINTSRC:	7, 8, 9, 11, 12, 13, 14, 15, 20, 24, 29, 33, 38, 40, 67, 86, 87, 141, 166, 167
!!@@BEGIN:	VERSES
!!@ABOUTIT:	Sopra la signora Barbara [Sanseverina, contessa di Sala], ch'era in Roma invidiata da dame e servita da' cavalieri.
!!@ABOUTEN:	About lady Barbara [Sanseverina, countess of Sala], who was envied by ladies and served by gentlemen.
!!@EDITOR:	Solerti, Angelo
!!@EDITION_TITLE: Le Rime di Torquato Tasso
!!@EDITION_LOC:	Bologna
!!@EDITION_PUB:	Romagnoli-Dall’Acqua
!!@EDITION_DATE:  1898-1902
!!@EDITION_VOL:	3
!!@EDITION_PAGE:  56
!!@TRANSLATOR:	Emiliano Ricciardi and Amyrose McCue Gill
!!@VERSE:
!!	Tolse <span class="name">Barbara</span> gente il pregio a Roma
!!	De l'imperio e de l'armi e serva fella,
!!	Oh nome a lei fatale! Ecco novella
!!	Barbara vincitrice anco la doma.
!!@VERSE:
!!	Ed a quale in lei più per beltà si noma
!!	Tolto lo scettro e il titolo di bella,
!!	Spiega sue squadre in Campidoglio e quella
!!	De' suoi prigioni incatenata e doma.
!!@VERSE:
!!	Sono i guerrieri suoi molle Rigore
!!	Con pudica Beltà sdegno cortese,
!!	Che quando sfida più tanto più piace.
!!@VERSE:
!!	I vinti un sesso e l'altro; e l'un d'Amore,
!!	L'altro d'Invidia: or com'è che la face
!!	Medesma agghiacci l'un che l'altro accese?
!!@TVERSE:
!!	Barbarian people stole from Rome the prize
!!	Of its empire and armies, and enslaved it,
!!	O, name, fatal to her! Here is a new,
!!	Victorious Barbara who subdued it once more.
!!@TVERSE:
!!	And, having removed, from one more renowned,
!!	The scepter and the title of beautiful woman
!!	She displays her squadrons on the capitol and that
!!	Of her prisoners, in chains and subdued.
!!@TVERSE:
!!	Her warriors are soft rigor
!!	With modest beauty [and] courteous disdain,
!!	Which, the more one challenges, the more one finds pleasing.
!!@TVERSE:
!!	The defeated belong to both sexes; and one by love,
!!	The other by envy; now, how can it be that
!!	The same blaze that freezes one sets the other aflame?
!!@@END:		VERSES
!!@OTHER_CRIT_ED:   Torquato Tasso, <i>Rime d’amore (secondo il codice
!!		Chigiano L VIII 302)</i>, eds. Franco Gavazzeni and
!!		Vercingetorige Martignone, vol. 4 of <i>Edizione
!!		Nazionale delle opere di Torquato Tasso</i>
!!		(Alessandria: Edizioni Dell’Orso, 2004).
!!@ATTRIBUTION_ABOUT:	Secure
!!		<br>
!!		Among other authoritative sources (see Literary
!!		Sources), this poem appears in the autograph Chigiano
!!		L.VIII.302 (Biblioteca Vaticana, Rome), compiled
!!		around 1584&ndash;85.
!!@DATING:	1572?
!!@DEDICATEE:	Sanseverina, Barbara
!!@DEDICATEE_INFO:	(c. 1550-1612)
!!@COMMENTARY:
!!@@END:		VERSEDATA
!!@@BEGIN:	SETTING
!!@CATALOGNUM:	Trm0541c
!!@RIMETITLE:	Tolse BARBARA gente il pregio a Roma
!!@SOLERTI:	541
!!@COMPOSER:	Striggio, Alessandro
!!@PRINCEPSTITLE:	Il terzo libro de madrigali a cinque voci
!!@PRINCEPSLOC:	Venetia
!!@NORMLOC:	Venice
!!@NORMPUB:	Angelo Gardano
!!@NORMPUBSHORT:	Gardano
!!@PRINCEPSPUB:	Gardano
!!@PRINCEPSYEAR:	1596
!!@PRINCEPSRISM:	S 6972
!!@REPRINTS:	
!!@OVOICES:	5
!!@EXTANTVOICES:	1
!!@PARTBOOKS:	
!!@EXTPARTBOOKS:	
!!@OCLEFS:	C4
!!@OMENSURATION:	Cut-C
!!@OKEYSIG:	-
!!@FINAL:	G?
!!@TIMPEDITOR:	Ricciardi, Emiliano
!!@NOTE:		
!!@@END:		SETTING
